X:1
T:Coming Again
T:Coming Again
T:Arthur W. McKee
T:Albert Simpson Reitz, 1915
T:Public Domain Courtesy of the Cyber Hymnal™
T:Public Domain Courtesy of the Cyber Hymnal™
C:Arthur W. McKee
Z:Public Domain
Z:Courtesy of the Cyber Hymnal™
%%score ( 1 2 ) ( 3 4 ) ( 5 6 )
L:1/8
Q:1/4=90
M:6/8
K:Eb
V:1 treble 
V:2 treble 
V:3 treble 
V:4 treble 
V:5 bass 
V:6 bass 
V:1
 G | GEF GGG | AEF G2 B | BFG BBA | G3- G2 G | BGA B=AB | ccd e2 e/e/ | edc cde | f3- f2 || %9
w: 1.~I|know that some day from His|heav- en- ly throne, The|bless- èd Re- deem- er of|men * Will|come in His glo- ry to|ga- ther His own; He is|com- ing, is com- ing a-|gain. *|
w: 2.~I|know when He comes it will|be as a king, For-|ev- er and ev- er to|reign; * So|watch- ing and wait- ing for|Him will I sing, He is|com- ing, is com- ing a-|gain. *|
w: 3.~Some|day a- mid an- gels of|heav- en- ly light And|glor- i- fied loved ones He’ll|come; * Come|quick- ly, Lord Je- sus, in|splen- dor and might: He is|com- ing, is com- ing a-|gain. *|
"^Refrain" [AB] | [GB][DF][EG] [DA][DG][DF] | [EG][EG][Ec] [EB]2 [EB]/[EB]/ | %12
w: |||
w: Per-|haps in the morn- ing His|face I shall see, The Re-|
w: |||
 [DB][DF][EG] [FA][EG][DF] | [EG]3- [EG]2 [EG] | [EB][EG][EA] [EB][E=A][EB] | %15
w: |||
w: deem- er and Sav- ior of|men; * And|oh, what a glor- i- ous|
w: |||
 [Ec][Ec][Gd] [Ge]2 [^Fe]/[Fe]/ | [Gef][GB]B [=Ac][_Af][Ge] | e3- [Ge]2 |] %18
w: |||
w: day that will be! He is|com- ing, is com- ing a-|gain! *|
w: |||
V:2
 x | x6 | x6 | x6 | x6 | x6 | x6 | x6 | x5 || x | x6 | x6 | x6 | x6 | x6 | x6 | x2 B x3 | GGA x2 |] %18
V:3
 z | [EGB]3 [EGB]3 | c2 =B _B2 z | [DAB]3 [DAB]3 | (Bec [EGB]2) z | [EGB]2 [DB] B=A[EB] | %6
 [Ec]2 [Gd] [Ge]3 | edc cde | ([Af][Gg][Af] dc) || x | x6 | x6 | x6 | x6 | x6 | x6 | x6 | x5 |] %18
V:4
 x | x6 | [EA]3 [EG]3 | x6 | [EG]3- x3 | x3 E2 x | x6 | [F=A]3 [FA]3 | x3 [FA]2 || x | x6 | x6 | %12
 x6 | x6 | x6 | x6 | x6 | x5 |] %18
V:5
 B,, | D,B,,C, D,C,D, | E,E,F, G,2 G,/G,/ | G,F,E, E,F,G, | A,3- A,2 G, | B,G,A, G,^F,G, | %6
 A,2 [G,=B,] [C,C]3 | F,,C,F, =A,B,C | ([B,D]3 [B,,B,]2) || [B,D] | %10
 [E,E][A,B,][G,B,] [F,B,][B,,B,][B,,B,] | [E,B,][E,B,][E,A,] [E,G,]2 [E,G,]/[E,G,]/ | %12
 [B,,F,][B,,B,][B,,B,] [B,,B,][B,,B,][B,,B,] | [E,B,]3- [E,B,]2 [E,B,] | %14
 [E,G,][E,B,][F,B,] [G,B,][^F,C][G,B,] | A,_A,[G,=B,] C2 [=A,C]/[A,C]/ | %16
 B,[B,E][G,E] [F,E][B,D][E,B,] | (EB,C [E,B,]2) |] %18
V:6
 x | x6 | x6 | x6 | x6 | x6 | x6 | x6 | x5 || x | x6 | x6 | x6 | x6 | x6 | =A,=A, C2 x2 | B, x5 | %17
 E,3- x2 |] %18

